;FLAVOR:Marlin
;TIME:778
;Filament used: 0.70951m
;Layer height: 0.2
;MINX:75.281
;MINY:89.6
;MINZ:0.2
;MAXX:134.736
;MAXY:120.395
;MAXZ:5
;Generated with Cura_SteamEngine main
M140 S60
M105
M190 S60
M104 S200
M105
M109 S200
M82 ;absolute extrusion mode
G21 ;metric values
G90 ;absolute positioning
M82 ;set extruder to absolute mode
M107 ;start with the fan off
G28 X0 Y0 ;move X/Y to min endstops
G28 Z0 ;move Z to min endstops
G1 Z15.0 F100 ;move the platform down 15mm
G92 E0 ;zero the extruded length
G1 F200 E3 ;extrude 3mm of feed stock
G92 E0 ;zero the extruded length again
G1 F100
G0 Y20 F100
M117 Printing...
G5
G92 E0
G92 E0
G1 F2400 E-6
;LAYER_COUNT:25
;LAYER:0
M107
M204 S3000
M205 X10 Y10
G1 F600 Z0.275
G0 F3000 X78.3 Y93.812 Z0.275
G1 F600 Z0.2
G0 F3000 X75.424 Y100.508
M204 S1800
M205 X8 Y8
;TYPE:SKIRT
G1 F2400 E0
G1 X75.464 Y99.794 E0.0333
G1 X75.583 Y99.089 E0.06659
G1 X75.844 Y98.228 E0.10848
G1 X76.091 Y97.58 E0.14078
G1 X76.675 Y96.139 E0.21318
G1 X76.98 Y95.493 E0.24644
G1 X77.356 Y94.884 E0.27977
G1 X77.798 Y94.322 E0.31306
G1 X78.3 Y93.812 E0.34638
G1 X78.855 Y93.361 E0.37968
G1 X79.457 Y92.975 E0.41298
G1 X80.099 Y92.659 E0.4463
G1 X80.899 Y92.379 E0.48577
G1 X81.739 Y92.148 E0.52633
G1 X86.044 Y91.027 E0.73348
G1 X86.708 Y90.866 E0.76529
G1 X87.524 Y90.715 E0.80393
G1 X98.445 Y89.687 E1.31471
G1 X99.232 Y89.625 E1.35147
G1 X100.485 Y89.601 E1.40982
G1 X113.956 Y89.6 E2.03709
G1 X114.771 Y89.612 E2.07504
G1 X115.625 Y89.682 E2.11494
G1 X116.323 Y89.788 E2.14782
G1 X121.117 Y90.588 E2.37413
G1 X121.801 Y90.712 E2.4065
G1 X122.496 Y90.878 E2.43977
G1 X123.169 Y91.122 E2.47311
G1 X123.81 Y91.438 E2.50639
G1 X124.286 Y91.736 E2.53254
G1 X124.913 Y92.168 E2.56799
G1 X129.126 Y95.157 E2.80852
G1 X129.691 Y95.57 E2.84111
G1 X130.244 Y96.024 E2.87443
G1 X130.817 Y96.612 E2.91266
G1 X131.606 Y97.647 E2.97326
G1 X133.103 Y99.678 E3.09074
G1 X133.527 Y100.272 E3.12473
G1 X133.909 Y100.877 E3.15804
G1 X134.221 Y101.52 E3.19132
G1 X134.46 Y102.195 E3.22466
G1 X134.622 Y102.891 E3.25794
G1 X134.715 Y103.855 E3.30304
G1 X134.736 Y104.871 E3.35036
G1 X134.736 Y106.123 E3.40865
G1 X134.726 Y106.847 E3.44237
G1 X134.677 Y107.561 E3.47569
G1 X134.547 Y108.264 E3.50898
G1 X134.341 Y108.949 E3.54229
G1 X134.059 Y109.606 E3.57558
G1 X133.705 Y110.228 E3.60891
G1 X133.284 Y110.807 E3.64224
G1 X132.802 Y111.335 E3.67553
G1 X132.206 Y111.85 E3.71221
G1 X131.576 Y112.33 E3.74909
G1 X126.379 Y116.156 E4.04959
G1 X125.835 Y116.544 E4.0807
G1 X125.231 Y116.927 E4.11401
G1 X124.587 Y117.239 E4.14733
G1 X123.863 Y117.492 E4.18304
G1 X122.92 Y117.759 E4.22868
G1 X114.686 Y119.928 E4.62516
G1 X113.95 Y120.111 E4.66048
G1 X113.248 Y120.244 E4.69375
G1 X112.573 Y120.298 E4.72528
G1 X111.878 Y120.315 E4.75765
G1 X100.288 Y120.395 E5.29734
G1 X99.383 Y120.388 E5.33948
G1 X98.517 Y120.317 E5.37994
G1 X89.633 Y119.428 E5.79569
G1 X88.987 Y119.354 E5.82596
G1 X88.068 Y119.18 E5.86952
G1 X86.996 Y118.894 E5.92118
G1 X81.504 Y117.325 E6.18714
G1 X80.838 Y117.125 E6.21952
G1 X80.166 Y116.881 E6.25281
G1 X79.525 Y116.564 E6.28611
G1 X78.923 Y116.177 E6.31943
G1 X78.368 Y115.725 E6.35276
G1 X77.867 Y115.215 E6.38605
G1 X77.427 Y114.652 E6.41932
G1 X77.008 Y113.962 E6.45691
G1 X76.591 Y113.165 E6.4988
G1 X76.194 Y112.372 E6.54009
G1 X75.903 Y111.765 E6.57144
G1 X75.63 Y111.103 E6.60478
G1 X75.433 Y110.416 E6.63806
G1 X75.314 Y109.711 E6.67135
G1 X75.281 Y108.706 E6.71817
G1 X75.406 Y105.958 E6.84626
G1 X75.453 Y103.295 E6.97028
G1 X75.424 Y101.11 E7.07204
G1 X75.424 Y100.508 E7.10007
M204 S3000
M205 X10 Y10
G1 F2400 E1.10007
G0 F3000 X75.967 Y105.959
M204 S1800
M205 X8 Y8
G1 F2400 E7.10007
G1 X76.013 Y103.298 E7.22399
G1 X75.984 Y101.11 E7.32589
G1 X75.984 Y100.508 E7.35392
G1 X76.024 Y99.826 E7.38573
G1 X76.143 Y99.153 E7.41755
G1 X76.367 Y98.428 E7.45289
G1 X76.66 Y97.662 E7.49107
G1 X77.193 Y96.35 E7.55702
G1 X77.487 Y95.733 E7.58884
G1 X77.851 Y95.155 E7.62065
G1 X78.28 Y94.623 E7.65247
G1 X78.768 Y94.145 E7.68428
G1 X79.308 Y93.727 E7.71608
G1 X79.894 Y93.375 E7.74791
G1 X80.517 Y93.094 E7.77973
G1 X81.048 Y92.919 E7.80576
G1 X81.797 Y92.712 E7.84195
G1 X86.176 Y91.571 E8.05266
G1 X86.84 Y91.41 E8.08448
G1 X87.584 Y91.273 E8.1197
G1 X98.49 Y90.245 E8.62978
G1 X99.258 Y90.184 E8.66566
G1 X100.606 Y90.16 E8.72843
G1 X113.956 Y90.16 E9.35007
G1 X114.763 Y90.172 E9.38765
G1 X115.542 Y90.236 E9.42404
G1 X116.231 Y90.34 E9.45649
G1 X120.935 Y91.124 E9.67855
G1 X121.701 Y91.263 E9.7148
G1 X122.365 Y91.424 E9.74661
G1 X123.005 Y91.661 E9.77839
G1 X123.722 Y92.027 E9.81588
G1 X124.52 Y92.576 E9.86098
G1 X128.795 Y95.609 E10.10505
G1 X129.36 Y96.022 E10.13764
G1 X129.887 Y96.457 E10.16946
G1 X130.555 Y97.192 E10.21571
G1 X131.155 Y97.979 E10.26179
G1 X132.706 Y100.085 E10.38358
G1 X133.071 Y100.597 E10.41286
G1 X133.435 Y101.176 E10.4447
G1 X133.728 Y101.793 E10.47651
G1 X133.947 Y102.44 E10.50831
G1 X134.089 Y103.108 E10.54011
G1 X134.155 Y103.866 E10.57554
G1 X134.176 Y104.882 E10.62286
G1 X134.176 Y106.116 E10.68032
G1 X134.166 Y106.84 E10.71404
G1 X134.117 Y107.521 E10.74583
G1 X133.988 Y108.192 E10.77765
G1 X133.782 Y108.844 E10.80948
G1 X133.502 Y109.466 E10.84125
G1 X133.15 Y110.052 E10.87308
G1 X132.732 Y110.593 E10.90491
G1 X132.254 Y111.081 E10.93672
G1 X131.866 Y111.404 E10.96023
G1 X131.16 Y111.942 E11.00156
G1 X126.054 Y115.701 E11.2968
G1 X125.51 Y116.089 E11.32791
G1 X124.932 Y116.452 E11.35969
G1 X124.315 Y116.746 E11.39152
G1 X123.71 Y116.953 E11.42129
G1 X122.767 Y117.22 E11.46693
G1 X114.551 Y119.384 E11.86255
G1 X113.815 Y119.567 E11.89786
G1 X113.144 Y119.693 E11.92965
G1 X112.559 Y119.738 E11.95697
G1 X111.874 Y119.755 E11.98888
G1 X100.293 Y119.835 E12.52815
G1 X99.406 Y119.828 E12.56946
G1 X98.573 Y119.76 E12.60837
G1 X89.696 Y118.872 E13.02379
G1 X89.05 Y118.798 E13.05406
G1 X88.212 Y118.639 E13.09378
G1 X87.15 Y118.355 E13.14497
G1 X81.665 Y116.788 E13.41059
G1 X80.999 Y116.588 E13.44297
G1 X80.358 Y116.354 E13.47475
G1 X79.748 Y116.046 E13.50657
G1 X79.178 Y115.669 E13.53839
G1 X78.656 Y115.228 E13.57021
G1 X78.189 Y114.729 E13.60203
G1 X77.784 Y114.179 E13.63384
G1 X77.504 Y113.702 E13.65959
G1 X77.04 Y112.813 E13.70629
G1 X76.699 Y112.13 E13.74183
G1 X76.408 Y111.523 E13.77318
G1 X76.149 Y110.89 E13.80503
G1 X75.966 Y110.232 E13.83683
G1 X75.861 Y109.557 E13.86864
G1 X75.84 Y108.732 E13.90706
G1 X75.967 Y105.959 E14.03632
M204 S3000
M205 X10 Y10
G0 F3000 X76.399 Y108.757
M204 S1800
M205 X8 Y8
G1 F2400 X76.527 Y105.958 E14.16679
G1 X76.572 Y103.319 E14.28969
G1 X76.544 Y101.179 E14.38935
G1 X76.544 Y100.508 E14.42059
G1 X76.584 Y99.86 E14.45082
G1 X76.703 Y99.221 E14.48109
G1 X76.89 Y98.627 E14.51009
G1 X77.137 Y97.979 E14.54238
G1 X77.712 Y96.561 E14.61363
G1 X77.993 Y95.975 E14.64389
G1 X78.344 Y95.428 E14.67415
G1 X78.76 Y94.929 E14.7044
G1 X79.233 Y94.484 E14.73464
G1 X79.758 Y94.101 E14.7649
G1 X80.325 Y93.785 E14.79513
G1 X81.198 Y93.459 E14.83852
G1 X82.022 Y93.232 E14.87832
G1 X86.308 Y92.116 E15.08455
G1 X86.972 Y91.955 E15.11636
G1 X87.664 Y91.827 E15.14913
G1 X98.456 Y90.81 E15.65388
G1 X99.295 Y90.744 E15.69307
G1 X100.606 Y90.72 E15.75412
G1 X113.956 Y90.72 E16.37576
G1 X114.754 Y90.732 E16.41292
G1 X115.459 Y90.79 E16.44586
G1 X116.139 Y90.893 E16.47788
G1 X120.917 Y91.69 E16.70344
G1 X121.601 Y91.814 E16.73581
G1 X122.232 Y91.969 E16.76606
G1 X122.839 Y92.2 E16.79631
G1 X123.651 Y92.659 E16.83974
G1 X124.265 Y93.081 E16.87443
G1 X128.465 Y96.061 E17.11423
G1 X129.03 Y96.474 E17.14681
G1 X129.53 Y96.889 E17.17707
G1 X130.11 Y97.532 E17.21739
G1 X130.704 Y98.311 E17.26301
G1 X132.25 Y100.41 E17.3844
G1 X132.615 Y100.922 E17.41368
G1 X132.959 Y101.473 E17.44392
G1 X133.233 Y102.062 E17.47417
G1 X133.432 Y102.681 E17.50445
G1 X133.554 Y103.319 E17.53469
G1 X133.595 Y103.878 E17.56079
G1 X133.616 Y104.894 E17.60811
G1 X133.616 Y106.108 E17.66464
G1 X133.606 Y106.832 E17.69836
G1 X133.558 Y107.48 E17.72861
G1 X133.429 Y108.117 E17.75888
G1 X133.224 Y108.733 E17.78911
G1 X132.945 Y109.319 E17.81933
G1 X132.595 Y109.867 E17.84961
G1 X132.181 Y110.368 E17.87987
G1 X131.527 Y110.959 E17.92091
G1 X130.828 Y111.491 E17.96182
G1 X125.729 Y115.245 E18.25665
G1 X125.185 Y115.633 E18.28777
G1 X124.634 Y115.977 E18.31801
G1 X124.045 Y116.25 E18.34824
G1 X123.557 Y116.414 E18.37222
G1 X122.521 Y116.707 E18.42235
G1 X114.416 Y118.841 E18.81261
G1 X113.68 Y119.024 E18.84793
G1 X112.894 Y119.169 E18.88515
G1 X111.87 Y119.195 E18.93284
G1 X100.297 Y119.275 E19.47174
G1 X99.429 Y119.269 E19.51216
G1 X98.629 Y119.203 E19.54954
G1 X89.76 Y118.316 E19.96458
G1 X89.114 Y118.242 E19.99485
G1 X88.356 Y118.098 E20.03078
G1 X87.304 Y117.817 E20.08148
G1 X81.826 Y116.252 E20.34677
G1 X81.16 Y116.052 E20.37915
G1 X80.551 Y115.827 E20.40938
G1 X79.974 Y115.529 E20.43962
G1 X79.437 Y115.163 E20.46988
G1 X78.95 Y114.733 E20.50013
G1 X78.519 Y114.247 E20.53038
G1 X78.001 Y113.443 E20.57491
G1 X77.541 Y112.562 E20.62119
G1 X77.204 Y111.888 E20.65628
G1 X76.913 Y111.281 E20.68762
G1 X76.669 Y110.679 E20.71787
G1 X76.5 Y110.051 E20.74815
G1 X76.41 Y109.408 E20.77839
G1 X76.399 Y108.757 E20.8087
M204 S3000
M205 X10 Y10
G1 F2400 E14.8087
;MESH:kaanii.stl
G0 F3000 X81.322 Y109.802
G0 X82.284 Y109.321
G0 X84.526 Y110.027
M204 S1800
M205 X8 Y8
;TYPE:WALL-INNER
G1 F2400 E20.8087
G1 F1294.3 X89.938 Y111.574 E21.11246
G1 X93.588 Y111.94 E21.31042
G1 X86.068 Y109.792 E21.73246
G1 X84.526 Y110.027 E21.81663
M204 S3000
M205 X10 Y10
G0 F3000 X99.682 Y113.561
G0 X121.912 Y110.953
G0 X127.902 Y106.547
G0 X127.899 Y104.143
G0 X120.493 Y97.416
G0 X103.636 Y96.625
G0 X88.611 Y99.211
M204 S1800
M205 X8 Y8
G1 F1250 X89.212 Y99.081 E21.85099
G1 F1348.3 X89.814 Y98.95 E21.88291
G1 F1463.4 X90.416 Y98.819 E21.91231
G1 F1600 X91.018 Y98.688 E21.93921
G1 F1168.3 X91.347 Y98.377 E21.96627
G1 X90.931 Y98.197 E21.99337
G1 F1600 X90.315 Y98.279 E22.0205
G1 F1463.4 X89.698 Y98.362 E22.05021
G1 F1348.3 X89.082 Y98.445 E22.08241
G1 F1250 X88.465 Y98.528 E22.1172
G1 F1205.2 X84.702 Y99.509 E22.34258
G1 F1203.4 X86.369 Y99.795 E22.44074
G1 F1205.2 X88.611 Y99.211 E22.57501
M204 S3000
M205 X10 Y10
G0 F3000 X98.131 Y97.385
G0 X103.798 Y97.98
M204 S1800
M205 X8 Y8
G1 F1476.3 X104.172 Y98.112 E22.59378
G1 F1500 X106.263 Y99.14 E22.70227
G1 X106.263 Y98.027 E22.7541
G1 X106.431 Y97.4 E22.78433
G1 X104.337 Y97.401 E22.88183
G1 F1489.4 X103.799 Y97.404 E22.90706
G1 F1466 X103.261 Y97.408 E22.9327
G1 F1476.3 X102.804 Y97.4 E22.95432
G1 F1500 X99.729 Y97.401 E23.09751
G1 X99.577 Y97.415 E23.10461
G1 X101.092 Y98.09 E23.18184
G1 X101.599 Y98.462 E23.21112
G1 X101.991 Y99.053 E23.24415
G1 X102.505 Y98.44 E23.2814
G1 X102.96 Y98.1 E23.30785
G1 F1476.3 X103.31 Y97.98 E23.32535
G1 F1453.3 X103.798 Y97.98 E23.34881
M204 S3000
M205 X10 Y10
G0 F3000 X108.015 Y97.026
G0 X112.401 Y98.638
M204 S1800
M205 X8 Y8
G1 F1500 X112.859 Y98.804 E23.37149
G1 X113.224 Y99.104 E23.39349
G1 X113.421 Y99.477 E23.41313
G1 X114.443 Y97.401 E23.52088
G1 X108.948 Y97.401 E23.77675
G1 X110.631 Y99.95 E23.91898
G1 X110.902 Y99.399 E23.94757
G1 X111.225 Y98.974 E23.97243
G1 X111.708 Y98.691 E23.99849
G1 X112.159 Y98.618 E24.01977
G1 X112.401 Y98.638 E24.03107
M204 S3000
M205 X10 Y10
G0 F3000 X115.535 Y97.377
G0 X117.349 Y97.936
M204 S1800
M205 X8 Y8
G1 F1208.6 X117.682 Y99.104 E24.10126
G1 X118.483 Y98.125 E24.17436
G1 X117.349 Y97.936 E24.2408
M204 S3000
M205 X10 Y10
G0 F3000 X119.337 Y98.081
G0 X120.326 Y98.286
G0 X121.091 Y98.989
M204 S1800
M205 X8 Y8
G1 F1653.5 X121.384 Y100.019 E24.28603
G1 X121.672 Y99.826 E24.30068
G1 X122.126 Y99.721 E24.32036
G1 X121.091 Y98.989 E24.37391
M204 S3000
M205 X10 Y10
G0 F3000 X126.901 Y103.336
G0 X126.915 Y105.694
G0 X124.698 Y107.17
G0 X120.945 Y109.194
G0 X119.88 Y109.468
M204 S1800
M205 X8 Y8
G1 F1500 X119.169 Y108.671 E24.42364
G1 X118.655 Y110.065 E24.49282
G1 X118.311 Y110.59 E24.52205
G1 F1318.7 X117.959 Y110.922 E24.54768
G1 X118.466 Y110.868 E24.57468
G1 F1500 X120.52 Y110.328 E24.67358
G1 F1188.1 X121.272 Y109.979 E24.72231
G1 X120.52 Y109.838 E24.76729
G1 F1500 X119.88 Y109.468 E24.80172
M204 S3000
M205 X10 Y10
G0 F3000 X121.009 Y109.868
G0 X121.78 Y109.709
M204 S1800
M205 X8 Y8
G1 F1055.3 X122.358 Y109.285 E24.84916
G1 F1059.3 X122.936 Y108.861 E24.89643
G1 F1061.9 X123.514 Y108.437 E24.94358
G1 F1066 X124.093 Y108.013 E24.9906
G1 F1067.3 X124.094 Y108.012 E24.99069
G1 X123.91 Y107.959 E25.00322
G1 X123.202 Y107.537 E25.05716
G1 X122.178 Y109.258 E25.18821
G1 F1060.6 X121.78 Y109.709 E25.22782
M204 S3000
M205 X10 Y10
G0 F3000 X117.705 Y110.966
G0 X116.435 Y110.648
M204 S1800
M205 X8 Y8
G1 F1500 X115.145 Y109.554 E25.30658
G1 X113.863 Y111.843 E25.42874
G1 X113.502 Y112.175 E25.45158
G1 X116.992 Y111.257 E25.61962
G1 F1318.7 X117.466 Y111.052 E25.64697
G1 X116.991 Y110.937 E25.67286
G1 F1500 X116.435 Y110.648 E25.70204
M204 S3000
M205 X10 Y10
G0 F3000 X112.743 Y112.656
G0 X111.565 Y112.656
G0 X108.156 Y112.526
M204 S1800
M205 X8 Y8
G1 F1435.9 X108.684 Y112.52 E25.72772
G1 F1418.9 X109.212 Y112.514 E25.75371
G1 F1421.3 X110.008 Y112.516 E25.79283
G1 F1481.5 X110.332 Y112.533 E25.80813
G1 X110.018 Y112.464 E25.82328
G1 F1421.3 X109.444 Y112.033 E25.85856
G1 F1409.4 X109.14 Y111.629 E25.88361
G1 X108.976 Y112.033 E25.90522
G1 F1414.1 X108.434 Y112.452 E25.93906
G1 F1431 X108.156 Y112.526 E25.9531
M204 S3000
M205 X10 Y10
G0 F3000 X102.65 Y111.674
M204 S1800
M205 X8 Y8
G1 F1500 X102.273 Y112.02 E25.97693
G1 F1288.3 X101.756 Y112.409 E26.012
G1 X102.436 Y112.581 E26.05003
G1 F1500 X103.301 Y112.575 E26.09031
G1 F1494.7 X104.166 Y112.568 E26.13073
G1 F1492 X105.031 Y112.562 E26.17123
G1 F1489.4 X105.896 Y112.555 E26.21179
G1 F1484.1 X106.761 Y112.549 E26.25251
G1 F1481.5 X107.626 Y112.542 E26.29329
G1 F1489.4 X107.015 Y112.277 E26.32452
G1 F1500 X103.94 Y109.962 E26.50375
G1 X102.65 Y111.674 E26.60356
M204 S3000
M205 X10 Y10
G0 F3000 X110.665 Y112.656
G0 X112.216 Y112.088
G0 X112.386 Y111.96
M204 S1800
M205 X8 Y8
G1 F1500 X112.048 Y111.769 E26.62164
G1 X111.552 Y111.112 E26.65997
G1 X111.255 Y111.641 E26.68822
G1 X111.117 Y111.79 E26.69768
G1 X110.713 Y111.985 E26.71857
G1 X110.423 Y111.987 E26.73207
G1 F1502.7 X110.239 Y111.934 E26.74097
G1 X109.9 Y111.676 E26.76077
G1 F1500 X108.796 Y110.217 E26.84597
G1 X108.694 Y111.241 E26.89388
G1 X108.529 Y111.665 E26.91507
G1 X108.2 Y111.925 E26.9346
G1 X108.009 Y111.984 E26.9439
G1 X107.719 Y111.986 E26.95741
G1 X107.352 Y111.829 E26.97599
G1 X103.829 Y109.178 E27.1813
G1 X102.202 Y111.337 E27.30718
G1 X101.977 Y111.544 E27.32141
G1 X101.681 Y111.657 E27.33617
G1 X99.642 Y111.968 E27.43221
G1 F1492 X99.076 Y112.057 E27.45903
G1 F1471.1 X98.51 Y112.147 E27.48624
G1 F1453.3 X97.944 Y112.237 E27.51379
G1 F1433.4 X97.378 Y112.327 E27.54171
G1 F1435.9 X97.014 Y112.3 E27.55947
G1 F1448.3 X96.518 Y112.158 E27.58435
G1 F1450.8 X96.022 Y112.016 E27.60919
G1 F1453.3 X95.526 Y111.874 E27.63398
G1 F1455.8 X95.03 Y111.732 E27.65874
G1 F1458.3 X94.534 Y111.59 E27.68345
G1 F1460.9 X94.038 Y111.448 E27.70811
G1 F1463.4 X93.542 Y111.306 E27.73274
G1 F1466 X93.046 Y111.163 E27.75733
G1 F1468.5 X92.55 Y111.021 E27.78187
G1 F1471.1 X92.054 Y110.879 E27.80637
G1 F1473.7 X91.558 Y110.737 E27.83082
G1 X91.062 Y110.595 E27.85527
G1 F1476.3 X90.565 Y110.453 E27.87973
G1 F1478.9 X90.069 Y110.311 E27.90409
G1 F1481.5 X89.573 Y110.169 E27.92842
G1 F1484.1 X89.077 Y110.026 E27.95271
G1 F1486.7 X88.581 Y109.884 E27.97695
G1 F1489.4 X88.085 Y109.742 E28.00115
G1 F1492 X87.589 Y109.6 E28.0253
G1 F1494.7 X87.093 Y109.458 E28.04941
G1 F1497.3 X86.597 Y109.316 E28.07347
G1 F1500 X86.101 Y109.174 E28.0975
G1 X82.934 Y109.658 E28.24668
G1 X83.251 Y110.291 E28.27964
G1 X89.824 Y112.17 E28.59797
G1 X90.322 Y112.219 E28.62127
G1 F1494.7 X90.821 Y112.268 E28.6447
G1 F1492 X91.319 Y112.318 E28.66813
G1 F1486.7 X91.818 Y112.367 E28.69169
G1 F1484.1 X92.317 Y112.417 E28.71529
G1 F1478.9 X92.815 Y112.466 E28.73892
G1 F1476.3 X93.314 Y112.515 E28.76265
G1 F1471.1 X93.812 Y112.565 E28.78641
G1 F1466 X94.311 Y112.614 E28.8103
G1 F1463.4 X94.81 Y112.664 E28.83423
G1 F1458.3 X95.308 Y112.713 E28.8582
G1 F1455.8 X95.807 Y112.762 E28.88226
